X:1/86
T:Meversor's W\'ig, The
Z:id:hn-hornpipe-57
M:6/8
K:G
BAG FDE|DEF G2B|AGD DGD|B,ED DGA ||



*****************************


12800 1 1.0513443 

<stare
|:1 AFE DFE | AGF ~E3 | F2E EDE | EFE cBc | deB AFE | F2D D2D :|
W:wesst pleath "G.D
Z:id:hn-jig-6


*****************************


12900 1 1.5879086 

<starthogn~fredt>
Z:Duncec'S: Steit Stable Stirs: Uw ten 'w, bo dloormolan Nhem
D:Jilo favent B
C:Jacken:


*****************************


13000 1 2.6882555 

<start>
cAA |
AAA dBB | dBG G2A | BBA ABc |1 dBd cBc ::|2 def g2d||
|: fdA dAF | cAA faa | fde ffg | fed 


*****************************


13100 1 1.5942383 

<star 2:177
B:Bdlesh, The
R:jig
C:Pdurly Pipe, The
K:Ebic
D:Mowrigin Fing, Freglid: The Sudxen's Meligh C


*****************************


13200 1 1.1322696 

<start>
A:Pady Slaginal
D:De Danpanty: Setumals
Z:id:hn-jig-85
M:6/8
K:F
AAF ~D3|GAF GFF|GFd dBB|dBG ~F3|


*****************************


13300 1 1.4301803 

<star AmF
DB, EED|EFA BAG|d2e eeg|~fa ece|AFG AFA|d2e cAG|ABA fAA|\
d2d def|edB BAG|~F3 ~E3|cAG FAG|BGB B


*****************************


13400 1 0.8669739 

<start Faltssor
Z:id:hn-jig-34
M:6/8
K:A
~F3 BcA|~A3 Bcd|BAB BGB|1 cAF c3e|fed cAF|GFG dBG|~G3 cBc|def ed


*****************************


13500 1 1.2498617 

<start>
M:8/4
L:1/8
K:G
|:ded d2e:|2 fdB A2G |
d2B d2B:|2 cAE D2F|GEE FDE||
<end>
<start>
